X:2521
T:East Boldon Jig
C:anon.
O:England
R:Jig
Z:C.G.P
F:http://abc.musicaviva.com/tunes/england/east-boldon-jig.abc
%Posted at abcusers Jan 2nd 2001 by Johnny Adams.
M:6/8
L:1/8
K:D
A|FAd fed|dcB A2G|FAd dcd|e2E E2G|FAd fed|dcB A2G|FAd cec|dDD D2:|f|e2e efg|f2f fed|Bef gfe|dcB A2F|
e2e efg|f2f fed|Bef gfe|dce d2f|
e2e efg|f2f fed|!Bef gfe|dcB A2G|FAd fed|dcB A2G|FAd cec|dDD D2|]
W:
W:
W:  From Musica Viva - http://www.musicaviva.com
W:  the Internet center for free sheet music downloads.
